X: 40761
T: Tour 25
R: reel
M: 4/4
K: Gmajor
A|:GD D/D/D GABc|dBe^c dBAG|CEEG AGEG|BGEG cGEG|
DG G/G/G AGFG|ADDB DDcA|dGGe dBAG|1 EGFA G3A:|2 EGFA G4|
|:geed AGGE|DGGA BAAc|Bd d/d/d edBd|eddA dAfA|
geed AGGE|DGGA BAAc|Bd d/d/d edBd|1 edBA G3d:|2 edBA G3||

